svg/nature/flower_fill.svg

<?xml version="1.0" encoding="UTF-8"?>
<svg width="24px" height="24px" viewBox="0 0 24 24" version="1.1" xmlns="http://www.w3.org/2000/svg" xmlns:xlink="http://www.w3.org/1999/xlink">
    <title>flower_fill</title>
    <g id="页面-1" stroke="none" stroke-width="1" fill="none" fill-rule="evenodd">
        <g id="System" transform="translate(-672.000000, -240.000000)">
            <g id="flower_fill" transform="translate(672.000000, 240.000000)">
                 <path d="M24,0 L24,24 L0,24 L0,0 L24,0 Z M12.5934901,23.257841 L12.5819402,23.2595131 L12.5108777,23.2950439 L12.4918791,23.2987469 L12.4918791,23.2987469 L12.4767152,23.2950439 L12.4056548,23.2595131 C12.3958229,23.2563662 12.3870493,23.2590235 12.3821421,23.2649074 L12.3780323,23.275831 L12.360941,23.7031097 L12.3658947,23.7234994 L12.3769048,23.7357139 L12.4804777,23.8096931 L12.4953491,23.8136134 L12.4953491,23.8136134 L12.5071152,23.8096931 L12.6106902,23.7357139 L12.6232938,23.7196733 L12.6232938,23.7196733 L12.6266527,23.7031097 L12.609561,23.275831 C12.6075724,23.2657013 12.6010112,23.2592993 12.5934901,23.257841 L12.5934901,23.257841 Z M12.8583906,23.1452862 L12.8445485,23.1473072 L12.6598443,23.2396597 L12.6498822,23.2499052 L12.6498822,23.2499052 L12.6471943,23.2611114 L12.6650943,23.6906389 L12.6699349,23.7034178 L12.6699349,23.7034178 L12.678386,23.7104931 L12.8793402,23.8032389 C12.8914285,23.8068999 12.9022333,23.8029875 12.9078286,23.7952264 L12.9118235,23.7811639 L12.8776777,23.1665331 C12.8752882,23.1545897 12.8674102,23.1470016 12.8583906,23.1452862 L12.8583906,23.1452862 Z M12.1430473,23.1473072 C12.1332178,23.1423925 12.1221763,23.1452606 12.1156365,23.1525954 L12.1099173,23.1665331 L12.0757714,23.7811639 C12.0751323,23.7926639 12.0828099,23.8018602 12.0926481,23.8045676 L12.108256,23.8032389 L12.3092106,23.7104931 L12.3186497,23.7024347 L12.3186497,23.7024347 L12.3225043,23.6906389 L12.340401,23.2611114 L12.337245,23.2485176 L12.337245,23.2485176 L12.3277531,23.2396597 L12.1430473,23.1473072 Z" id="MingCute" fill-rule="nonzero"></path>
                <path d="M10.5858,2.50009 C11.3668,1.71904 12.6332,1.71905 13.4142,2.50009 L15.046,4.13185 C15.2604,3.83185 15.4669,3.52818 15.6679,3.22661 C16.0503,2.65306 16.4157,1.80057 17.2669,2.03635 C17.7001,2.15633 18,2.55058 18,3.00006 L18,9.00006 C18,11.9731 15.8377,14.441 13,14.9171 L13,18.9171 C14.9584,18.5886 16.5963,17.3113 17.423,15.571 C17.66,15.0721 18.2565,14.8598 18.7554,15.0968 C19.2543,15.3338 19.4666,15.9303 19.2296,16.4292 C18.0828,18.8432 15.7605,20.5939 13,20.9382 C13,21.5046 12.5931,22.0001 12,22.0001 C11.4069,22.0001 11,21.5046 11,20.9382 C8.23945,20.5939 5.91709,18.8432 4.77031,16.4292 C4.53333,15.9303 4.74562,15.3338 5.24448,15.0968 C5.74334,14.8598 6.33985,15.0721 6.57683,15.571 C7.40361,17.3114 9.04157,18.5886 11,18.9171 L11,14.9171 C8.16228,14.441 6,11.9731 6,9.00006 L6,3.00006 C6,2.55058 6.29989,2.15633 6.73307,2.03635 C7.57919,1.80199 7.95247,2.65724 8.33205,3.22661 C8.5331,3.52818 8.73956,3.83185 8.95403,4.13185 L10.5858,2.50009 Z M10.2181,5.69621 C10.6299,6.13321 11.3518,7.00006 12,7.00006 C12.6482,7.00006 13.3701,6.13321 13.7819,5.69621 L12,3.91431 L10.2181,5.69621 Z" id="形状" fill="#09244B"></path>
            </g>
        </g>
    </g>
</svg>

<svg xmlns="http://www.w3.org/2000/svg" width="24" height="24"><g fill="none" fill-rule="evenodd"><path d="M24 0v24H0V0h24ZM12.593 23.258l-.011.002-.071.035-.02.004-.014-.004-.071-.035c-.01-.004-.019-.001-.024.005l-.004.01-.017.428.005.02.01.013.104.074.015.004.012-.004.104-.074.012-.016.004-.017-.017-.427c-.002-.01-.009-.017-.017-.018Zm.265-.113-.013.002-.185.093-.01.01-.003.011.018.43.005.012.008.007.201.093c.012.004.023 0 .029-.008l.004-.014-.034-.614c-.003-.012-.01-.02-.02-.022Zm-.715.002a.023.023 0 0 0-.027.006l-.006.014-.034.614c0 .012.007.02.017.024l.015-.002.201-.093.01-.008.004-.011.017-.43-.003-.012-.01-.01-.184-.092Z"/><path fill="#09244B" d="M10.586 2.5a2 2 0 0 1 2.828 0l1.632 1.632c.214-.3.42-.604.622-.905.382-.574.748-1.426 1.599-1.19A1 1 0 0 1 18 3v6a6.002 6.002 0 0 1-5 5.917v4a6.008 6.008 0 0 0 4.423-3.346 1 1 0 1 1 1.807.858A8.007 8.007 0 0 1 13 20.94c0 .566-.407 1.061-1 1.061s-1-.495-1-1.062a8.007 8.007 0 0 1-6.23-4.509 1 1 0 0 1 1.807-.858A6.008 6.008 0 0 0 11 18.917v-4A6.002 6.002 0 0 1 6 9V3a1 1 0 0 1 .733-.964c.846-.234 1.22.621 1.6 1.19.2.302.407.606.621.906L10.586 2.5Zm-.368 3.196C10.63 6.133 11.352 7 12 7c.648 0 1.37-.867 1.782-1.304L12 3.914l-1.782 1.782Z"/></g></svg>
